dist/img/unused_program/group-79.svg

<svg width="19" height="17" viewBox="0 0 19 17" xmlns="http://www.w3.org/2000/svg"><title>D03FD6D8-A5A8-424B-BF49-E2E849FF8CD6</title><g fill="none" fill-rule="evenodd"><circle fill="#0A55F7" cx="8.5" cy="8.5" r="8.5"/><path d="M17.738 2.28l-7.1 7.254-1.91-2.27c-.842-.726-2.166.12-1.564 1.208l2.27 3.963c.36.484 1.204.967 2.046 0 .36-.484 7.22-9.068 7.22-9.068.843-.967-.24-1.813-.962-1.088v.001z" fill="#FFF"/></g></svg>

<?xml version="1.0" encoding="UTF-8" standalone="no"?>
<svg width="19px" height="17px" viewBox="0 0 19 17" version="1.1" xmlns="http://www.w3.org/2000/svg" xmlns:xlink="http://www.w3.org/1999/xlink">
    <!-- Generator: sketchtool 41.2 (35397) - http://www.bohemiancoding.com/sketch -->
    <title>D03FD6D8-A5A8-424B-BF49-E2E849FF8CD6</title>
    <desc>Created with sketchtool.</desc>
    <defs></defs>
    <g id="Welcome" stroke="none" stroke-width="1" fill="none" fill-rule="evenodd">
        <g id="Program---Desktop" transform="translate(-738.000000, -9486.000000)">
            <g id="Group-56-Copy" transform="translate(738.000000, 9486.000000)">
                <g id="Group-79">
                    <circle id="Oval-6" fill="#0A55F7" cx="8.5" cy="8.5" r="8.5"></circle>
                    <path d="M17.738,2.28 L10.638,9.534 L8.728,7.264 C7.886,6.538 6.562,7.384 7.164,8.472 L9.434,12.435 C9.794,12.919 10.638,13.402 11.48,12.435 C11.84,11.951 18.7,3.367 18.7,3.367 C19.543,2.4 18.46,1.554 17.738,2.279 L17.738,2.28 Z" id="Shape" fill="#FFFFFF"></path>
                </g>
            </g>
        </g>
    </g>
</svg>
